icons/remix.svg

<svg width="16" height="16" viewBox="0 0 16 16" fill="none" xmlns="http://www.w3.org/2000/svg">
<path d="M8 5.5H3V3H8.5C11 3 12.5 4 12.5 6C12.5 7.5 12.5 8 11.025 9C12.5 10 12.5 11.4053 12.5 13V13.5H9.5V13C9.5 11.8694 9.225 10 7.85703 10H3V7.5H8C8.6442 7.5 9.5 7.5 9.5 6.5C9.5 5.5 8.65189 5.5 8 5.5Z" fill="#D83BD2"/>
<path d="M3 13.5H8C8.01298 12.3795 7.5 11.5 6.5 11.5H3V13.5Z" fill="#D83BD2"/>
</svg>

<svg xmlns="http://www.w3.org/2000/svg" width="16" height="16" fill="none"><path fill="#D83BD2" d="M8 5.5H3V3h5.5c2.5 0 4 1 4 3 0 1.5 0 2-1.475 3 1.475 1 1.475 2.405 1.475 4v.5h-3V13c0-1.13-.275-3-1.643-3H3V7.5h5c.644 0 1.5 0 1.5-1s-.848-1-1.5-1Z"/><path fill="#D83BD2" d="M3 13.5h5c.013-1.12-.5-2-1.5-2H3v2Z"/></svg>
